X:1
T:Ach, wie ist's möglich dann
T:Friedrich Wilhelm Kücken
T:Wilhelmine von Chézy
T:Treue Liebe
T:Version für Männerchor
T:CPDL - Creative Commons Attribution Non Commercial 3.0
C:Friedrich Wilhelm Kücken
Z:Wilhelmine von Chézy
Z:CPDL - Creative Commons Attribution Non Commercial 3.0
%%score [ ( 1 2 ) ( 3 4 ) ]
L:1/8
Q:1/4=90
M:2/4
K:D
V:1 treble-8 nm="Tenor"
V:2 treble-8 
V:3 bass nm="Bass"
V:4 bass 
V:1
"^Innig bewegt"!p! !^!f2!<(! dB!<)! |!>(! Ad!>)! d2 | e2!<(! de!<)! | f!>(!B A2!>)! | %4
w: 1.~Ach wie ist's|mög- lich dann,|dass ich dich|las- sen kann!|
w: 2.~Blau ist ein|Blü- me- lein,|das heißt: Ver-|giß- nicht- mein!|
w: ~3.~Wär' ich ein|Vö- ge- lein,|wollt' ich bald|bei dir sein,|
!<(! A2 ^G!<)!A | Bg f2 |!f! !^!e2!>(! fe!>)! | A2 z2 |!p! e2 fe | dB A2 |!>(! f2 gf!>)! | %11
w: Hab' dich von|Her- zen lieb,|das glau- be|mir!|Du hast das|Her- ze mein|so ganz ge-|
w: Dies Blüm- lein|leg ans Herz|und denk an|mich!|Stirbt Blum' und|Hoff- nung gleich,|wir sind an|
w: scheut' Falk und|Ha- bicht nicht,|flög' schnell zu|dir.|~Schöss' mich ein|Jä- ger tot,|fiel ich in|
!>(! Bf!>)! e2 |!p! A2!<(! BA!<)! | !^!A!>(!g!>)! !fermata!f2 |!mf! !^!e2 B!>(!c!>)! | %15
w: nom- men ein,|dass ich kein'|And'- re lieb|als dich al-|
w: Lie- be reich;|denn die stirbt|nie bei mir,|das glau- be|
w: dei- nen Schoß;|sähst du mich|trau- rig an,|gern stürb' ich|
 !fermata!d2 z2 |] %16
w: lein.|
w: mir!|
w: dann.|
V:2
 d2 AG | FA A2 | c2 BA | AG A2 | F2 ^EF | Gd d2 | c2 BB | A2 x2 | c2 cc | AB A2 | ^d2 dd | BB B2 | %12
 G2 GG | Fd d2 | d2 BA | A2 x2 |] %16
V:3
!p! !^!A,2!<(! F,G,!<)! |!>(! A,F,!>)! F,2 | A,2!<(! F,E,!<)! | D,!>(!G, F,2!>)! | %4
!<(! D,2 D,!<)!D, | D,G, A,2 |!f! !^!A,2!>(! ^G,G,!>)! | A,2 z2 |!p! G,2 A,G, | F,G, F,2 | %10
!>(! A,2 B,A,!>)! |!>(! G,A,!>)! G,2 |!p! E,2!<(! E,E,!<)! | !^!D,!>(!B, A,2!>)! | %14
!mf! !^!^G,2 =G,!>(!G, | F,2!>)! z2 |] %16
V:4
 D,2 D,D, | D,D, D,2 | A,,2 B,,C, | D,D, D,2 | D,2 D,D, | G,,B,, D,2 | E,2 E,E, | A,2 x2 | %8
 A,,2 A,,A,, | D,D, D,=C, | B,,2 B,,B,, | E,E, E,D, | C,2 D,C, | D,D, !fermata!D,2 | B,,2 A,,A,, | %15
 !fermata!D,2 x2 |] %16

